communes/3708.svg

<?xml version="1.0" encoding="UTF-8"?>
<!DOCTYPE svg  PUBLIC '-//W3C//DTD SVG 1.1//EN'  'http://www.w3.org/Graphics/SVG/1.1/DTD/svg11.dtd'>
<svg width="438" height="480" viewBox="21 15 438 480" xmlns="http://www.w3.org/2000/svg">
<metadata>
<rdf:RDF xmlns:dc="http://purl.org/dc/elements/1.1/" xmlns:rdf="http://www.w3.org/1999/02/22-rdf-syntax-ns#">
<rdf:Description dc:date="2006-11-01" dc:format="image/svg+xml" dc:language="de" dc:title="Wappen Mathon (CH-GR)">
<dc:creator rdf:resource="http://de.wikipedia.org/wiki/Benutzer:Bernina"/>
</rdf:Description>
</rdf:RDF>
</metadata>
<title>Wappen Mathon (CH-GR)</title>
<defs>
<clipPath id="a">
<path d="m360 4140a3240 3240 0 0 0 6480 0v-3870h-6480v3870z"/>
</clipPath>
<style type="text/css"><![CDATA[
  .Rand2 { stroke: #202020; stroke-width:30; }
  .Rand4 { stroke: #202020; stroke-width:60; }
  .Rand6 { stroke: #202020; stroke-width:90; }
  .Rot { fill: #ff0000; }
  .Gold { fill: #ffef00; }
  ]]></style>
</defs>
<g transform="scale(.066667)" fill="none" fill-rule="evenodd" stroke-miterlimit="10" stroke-width="10">
<g clip-path="url(#a)">
<path class="Rot" d="m-225-225v7650h7650v-7650h-7650z"/>
<path class="Gold Rand2" d="m3240 1530c0-60 0-120-45-195s-135-165-225-255v-270h540c0 60 0 120-45 150s-135 30-225 30c0 30 0 60 30 105s90 105 135 180 75 165 105 255"/>
<path class="Gold Rand2" d="m3960 1530c0-60 0-120 45-195s135-165 225-255v-270h-540c0 60 0 120 45 150s135 30 225 30c0 30 0 60-30 105s-90 105-135 180-75 165-105 255"/>
<path class="Gold Rand2" d="m3510 1530h180l90-900h-360l90 900z"/>
<path class="Gold Rand2" d="m4230 1890c0-90 0-180-45-240s-135-90-240-105-225-15-345-15-240 0-345 15-195 45-240 105-45 150-45 240"/>
<path class="Gold Rand2" d="m2520 2430c0-120 0-240 90-360s270-240 540-300 630-60 900 0 450 180 540 300 90 240 90 360c0 300 0 600 60 930s180 690 315 960 285 450 375 585 120 225 135 330 15 225 15 345h-3960c0-120 0-240 15-345s45-195 135-330 240-315 375-585 255-630 315-960 60-630 60-930z"/>
<path class="Gold Rand2" d="m5580 5580a1980 450 0 0 0-3960 0 1980 450 0 0 0 3960 0z"/>
<path class="Rand2" d="m2520 2430a3330 3330 0 0 1 2160 0"/>
<path class="Rand2" d="m2610 2160a2812 2812 0 0 1 1980 0"/>
<path class="Rand2" d="m1980 4590c150-60 300-120 495-165s435-75 705-90 570-15 825 0 465 45 660 90 375 105 555 165"/>
<path class="Rand2" d="m1800 4860c150-60 300-120 525-165s525-75 825-90 600-15 885 0 555 45 780 90 405 105 585 165"/>
<path class="Rand4" d="m5310 5580a1710 270 0 0 0-3420 0 1710 270 0 0 0 3420 0z"/>
<path class="Gold Rand2" d="m3420 5400c-30 120-60 240-75 360s-15 240 15 330 90 150 90 285-60 345-45 450 105 105 195 105 180 0 195-105-45-315-45-450 60-195 90-285 30-210 15-330-45-240-75-360"/>
</g>
<path class="Rand6" d="m360 4140a3240 3240 0 0 0 6480 0v-3870h-6480v3870z"/>
</g>
</svg>

<?xml version="1.0" encoding="iso-8859-1"?>
<!DOCTYPE svg PUBLIC "-//W3C//DTD SVG 1.1//EN" "http://www.w3.org/Graphics/SVG/1.1/DTD/svg11.dtd">
<!-- Auto-generated by fig2svg tool
     Date: Wed Nov  1 17:58:15 2006 -->
<svg xmlns="http://www.w3.org/2000/svg"
     width="438" height="480" viewBox="21 15 438 480">
<metadata>
<rdf:RDF xmlns:rdf="http://www.w3.org/1999/02/22-rdf-syntax-ns#"
         xmlns:dc="http://purl.org/dc/elements/1.1/">
<rdf:Description
 dc:title="Wappen Mathon (CH-GR)"
 dc:date="2006-11-01"
 dc:format="image/svg+xml"
 dc:language="de">
<dc:creator rdf:resource="http://de.wikipedia.org/wiki/Benutzer:Bernina" />
</rdf:Description>
</rdf:RDF>
</metadata>
<title>
Wappen Mathon (CH-GR)
</title>
<defs>
<clipPath id="clippath">
<path d="M360,4140 A3240,3240 0.0 0 0 6840,4140 L6840,270 L360,270 L360,4140 Z" />
</clipPath>
<style type="text/css">
  <![CDATA[
  .Rand2 { stroke: #202020; stroke-width:30; }
  .Rand4 { stroke: #202020; stroke-width:60; }
  .Rand6 { stroke: #202020; stroke-width:90; }
  .Rot { fill: #ff0000; }
  .Gold { fill: #ffef00; }
  ]]>
</style>
</defs>
<g stroke="none" stroke-miterlimit="10" stroke-width="10"
   stroke-linecap="butt" stroke-linejoin="miter"
   fill="none" fill-rule="evenodd" transform="scale(0.066667)">
<g clip-path="url(#clippath)">
<path id="feld-1" class="Rot"
      d="M-225,-225 L-225,7425 L7425,7425 L7425,-225 L-225,-225 Z" />
<path id="glocke1-1" class="Gold Rand2"
      d="M3240,1530 C3240,1470 3240,1410 3195,1335
         C3150,1260 3060,1170 2970,1080 L2970,810 L3510,810
         C3510,870 3510,930 3465,960 C3420,990 3330,990 3240,990
         C3240,1020 3240,1050 3270,1095 C3300,1140 3360,1200 3405,1275
         C3450,1350 3480,1440 3510,1530" />
<path id="glocke1-2" class="Gold Rand2"
      d="M3960,1530 C3960,1470 3960,1410 4005,1335
         C4050,1260 4140,1170 4230,1080 L4230,810 L3690,810
         C3690,870 3690,930 3735,960 C3780,990 3870,990 3960,990
         C3960,1020 3960,1050 3930,1095 C3900,1140 3840,1200 3795,1275
         C3750,1350 3720,1440 3690,1530" />
<path id="glocke2-1" class="Gold Rand2"
      d="M3510,1530 L3690,1530 L3780,630 L3420,630 L3510,1530 Z" />
<path id="glocke3-1" class="Gold Rand2"
      d="M4230,1890 C4230,1800 4230,1710 4185,1650
         C4140,1590 4050,1560 3945,1545 C3840,1530 3720,1530 3600,1530
         C3480,1530 3360,1530 3255,1545 C3150,1560 3060,1590 3015,1650
         C2970,1710 2970,1800 2970,1890" />
<path id="glocke4-1" class="Gold Rand2"
      d="M2520,2430 C2520,2310 2520,2190 2610,2070
         C2700,1950 2880,1830 3150,1770 C3420,1710 3780,1710 4050,1770
         C4320,1830 4500,1950 4590,2070 C4680,2190 4680,2310 4680,2430
         C4680,2730 4680,3030 4740,3360 C4800,3690 4920,4050 5055,4320
         C5190,4590 5340,4770 5430,4905 C5520,5040 5550,5130 5565,5235
         C5580,5340 5580,5460 5580,5580 L1620,5580
         C1620,5460 1620,5340 1635,5235 C1650,5130 1680,5040 1770,4905
         C1860,4770 2010,4590 2145,4320 C2280,4050 2400,3690 2460,3360
         C2520,3030 2520,2730 2520,2430 Z" />
<path id="glocke5-1" class="Gold Rand2"
      d="M5580,5580 A1980,450 0.0 0 0 1620,5580 A1980,450 0.0 0 0 5580,5580 Z" />
<path id="glocke-linie-1" class="Rand2"
      d="M2520,2430 A3330,3330 0.0 0 1 4680,2430" />
<path id="glocke-linie-2" class="Rand2"
      d="M2610,2160 A2812,2812 0.0 0 1 4590,2160" />
<path id="glocke-linie-3" class="Rand2"
      d="M1980,4590 C2130,4530 2280,4470 2475,4425
         C2670,4380 2910,4350 3180,4335 C3450,4320 3750,4320 4005,4335
         C4260,4350 4470,4380 4665,4425 C4860,4470 5040,4530 5220,4590" />
<path id="glocke-linie-4" class="Rand2"
      d="M1800,4860 C1950,4800 2100,4740 2325,4695
         C2550,4650 2850,4620 3150,4605 C3450,4590 3750,4590 4035,4605
         C4320,4620 4590,4650 4815,4695 C5040,4740 5220,4800 5400,4860" />
<path id="glocke-liniex-1" class="Rand4"
      d="M5310,5580 A1710,270 0.0 0 0 1890,5580 A1710,270 0.0 0 0 5310,5580 Z" />
<path id="glocke6-1" class="Gold Rand2"
      d="M3420,5400 C3390,5520 3360,5640 3345,5760
         C3330,5880 3330,6000 3360,6090 C3390,6180 3450,6240 3450,6375
         C3450,6510 3390,6720 3405,6825 C3420,6930 3510,6930 3600,6930
         C3690,6930 3780,6930 3795,6825 C3810,6720 3750,6510 3750,6375
         C3750,6240 3810,6180 3840,6090 C3870,6000 3870,5880 3855,5760
         C3840,5640 3810,5520 3780,5400" />
</g>
<path id="clip-boundary" class="Rand6"
      d="M360,4140 A3240,3240 0.0 0 0 6840,4140 L6840,270 L360,270 L360,4140 Z" />
</g>
</svg>
